X: 7
T: The Wind That Shakes The Barley
R: reel
M: 4/4
L: 1/8
K: Dmaj
A2FA A2FA | B2GB BGdB | A2FA A2de | fded B2dB | A2FA ADFA | BEGE B2dB | A2FA ABde | fded BAde ||f2ef g2eg | fedf e2de | fdfd a3b | afed Bcde |f2ef g2eg | fedf e2dA | defg a2ab | afed BcdB ||play ~ | afed Bcd2 ||


Tune 116	Setting 12714

